icon-svg/vsc.svg

<svg xmlns="http://www.w3.org/2000/svg" viewBox="0 0 24 24"><path fill="#44739e" d="m21.289 4.156-4.113-1.979a1.24 1.24 0 0 0-1.422.24l-7.88 7.19L4.44 6.999a.83.83 0 0 0-1.064.046l-1.1 1a.83.83 0 0 0 0 1.231l2.975 2.723-2.978 2.718a.83.83 0 0 0 0 1.23l1.1 1a.83.83 0 0 0 1.067.051l3.434-2.607 7.883 7.193a1.24 1.24 0 0 0 1.42.24l4.117-1.982A1.25 1.25 0 0 0 22 18.713V5.281a1.25 1.25 0 0 0-.709-1.126ZM17.001 16.54l-5.981-4.541 5.981-4.54Z"/></svg>

<?xml version="1.0" encoding="UTF-8"?>
<svg width="24px" fill="#44739e" height="24px" viewBox="0 0 24 24" version="1.1" xmlns="http://www.w3.org/2000/svg" xmlns:xlink="http://www.w3.org/1999/xlink">
            <path d="M 21.289,4.156 17.175,2.177 a 1.242,1.242 0 0 0 -1.422,0.24 L 7.872,9.608 4.438,7 A 0.831,0.831 0 0 0 3.374,7.046 l -1.1,1 a 0.831,0.831 0 0 0 0,1.231 L 5.249,12 2.271,14.718 a 0.831,0.831 0 0 0 0,1.231 l 1.1,1 A 0.831,0.831 0 0 0 4.438,17 l 3.434,-2.608 7.884,7.194 a 1.239,1.239 0 0 0 1.42,0.24 l 4.118,-1.982 A 1.245,1.245 0 0 0 22,18.715 V 5.281 A 1.253,1.253 0 0 0 21.291,4.155 Z M 17,16.542 11.019,12 17,7.46 Z"/>

</svg>
